data/elementary/themes/img/bt.svg

<?xml version="1.0" encoding="UTF-8" standalone="no"?>
<!-- Generator: Adobe Illustrator 18.1.1, SVG Export Plug-In . SVG Version: 6.00 Build 0)  -->

<svg
   xmlns:dc="http://purl.org/dc/elements/1.1/"
   xmlns:cc="http://creativecommons.org/ns#"
   xmlns:rdf="http://www.w3.org/1999/02/22-rdf-syntax-ns#"
   xmlns:svg="http://www.w3.org/2000/svg"
   xmlns="http://www.w3.org/2000/svg"
   xmlns:sodipodi="http://sodipodi.sourceforge.net/DTD/sodipodi-0.dtd"
   xmlns:inkscape="http://www.inkscape.org/namespaces/inkscape"
   version="1.1"
   id="Capa_1"
   x="0px"
   y="0px"
   viewBox="0 0 16.882 16.882"
   style="enable-background:new 0 0 16.882 16.882;"
   xml:space="preserve"
   sodipodi:docname="bt.svg"
   inkscape:export-filename="/home/raster/bt.svg.png"
   inkscape:export-xdpi="909.84003"
   inkscape:export-ydpi="909.84003"
   inkscape:version="0.92.2 2405546, 2018-03-11"><metadata
   id="metadata41"><rdf:RDF><cc:Work
       rdf:about=""><dc:format>image/svg+xml</dc:format><dc:type
         rdf:resource="http://purl.org/dc/dcmitype/StillImage" /><dc:title></dc:title></cc:Work></rdf:RDF></metadata><defs
   id="defs39" /><sodipodi:namedview
   pagecolor="#ffffff"
   bordercolor="#666666"
   borderopacity="1"
   objecttolerance="10"
   gridtolerance="10"
   guidetolerance="10"
   inkscape:pageopacity="0"
   inkscape:pageshadow="2"
   inkscape:window-width="2560"
   inkscape:window-height="1377"
   id="namedview37"
   showgrid="false"
   inkscape:pagecheckerboard="true"
   inkscape:zoom="13.979386"
   inkscape:cx="-1.2876102"
   inkscape:cy="8.441"
   inkscape:window-x="0"
   inkscape:window-y="0"
   inkscape:window-maximized="1"
   inkscape:current-layer="Capa_1" />
<g
   id="g4"
   style="fill:#ffffff">
	<path
   style="fill:#ffffff"
   d="M12.701,5.182L7.497,0v6.488L5.161,4.162l-0.98,0.982l3.252,3.238l-3.247,3.166l0.971,0.992   L7.5,10.255v6.627l5.195-5.225L9.41,8.391L12.701,5.182z M8.885,3.34l1.839,1.83L8.885,6.965V3.34z M10.732,11.664l-1.846,1.857   V9.826L10.732,11.664z"
   id="path2" />
</g>
<g
   id="g6">
</g>
<g
   id="g8">
</g>
<g
   id="g10">
</g>
<g
   id="g12">
</g>
<g
   id="g14">
</g>
<g
   id="g16">
</g>
<g
   id="g18">
</g>
<g
   id="g20">
</g>
<g
   id="g22">
</g>
<g
   id="g24">
</g>
<g
   id="g26">
</g>
<g
   id="g28">
</g>
<g
   id="g30">
</g>
<g
   id="g32">
</g>
<g
   id="g34">
</g>
</svg>

<?xml version="1.0" encoding="UTF-8" standalone="no"?>
<svg
   xmlns:osb="http://www.openswatchbook.org/uri/2009/osb"
   xmlns:dc="http://purl.org/dc/elements/1.1/"
   xmlns:cc="http://creativecommons.org/ns#"
   xmlns:rdf="http://www.w3.org/1999/02/22-rdf-syntax-ns#"
   xmlns:svg="http://www.w3.org/2000/svg"
   xmlns="http://www.w3.org/2000/svg"
   xmlns:sodipodi="http://sodipodi.sourceforge.net/DTD/sodipodi-0.dtd"
   xmlns:inkscape="http://www.inkscape.org/namespaces/inkscape"
   version="1.1"
   id="svg2"
   width="15"
   height="15"
   viewBox="0 0 15 15"
   sodipodi:docname="bt.svg"
   inkscape:version="1.0 (4035a4fb49, 2020-05-01)"
   inkscape:export-filename="/home/raster/C/th-efl/th/img/bt-base.png"
   inkscape:export-xdpi="384"
   inkscape:export-ydpi="384">
  <metadata
     id="metadata8">
    <rdf:RDF>
      <cc:Work
         rdf:about="">
        <dc:format>image/svg+xml</dc:format>
        <dc:type
           rdf:resource="http://purl.org/dc/dcmitype/StillImage" />
        <dc:title></dc:title>
      </cc:Work>
    </rdf:RDF>
  </metadata>
  <defs
     id="defs6">
    <linearGradient
       osb:paint="solid"
       id="linearGradient4128">
      <stop
         id="stop4126"
         offset="0"
         style="stop-color:#000000;stop-opacity:1;" />
    </linearGradient>
  </defs>
  <sodipodi:namedview
     inkscape:document-rotation="0"
     pagecolor="#404040"
     bordercolor="#666666"
     borderopacity="1"
     objecttolerance="10"
     gridtolerance="10"
     guidetolerance="10"
     inkscape:pageopacity="0"
     inkscape:pageshadow="2"
     inkscape:window-width="2560"
     inkscape:window-height="1377"
     id="namedview4"
     showgrid="true"
     inkscape:zoom="80.733333"
     inkscape:cx="7.5"
     inkscape:cy="7.5247729"
     inkscape:window-x="0"
     inkscape:window-y="0"
     inkscape:window-maximized="1"
     inkscape:current-layer="g10"
     inkscape:snap-bbox="true"
     inkscape:bbox-paths="false"
     inkscape:bbox-nodes="true"
     inkscape:snap-bbox-edge-midpoints="false"
     inkscape:object-paths="true"
     inkscape:snap-intersection-paths="true"
     inkscape:snap-smooth-nodes="true">
    <inkscape:grid
       type="xygrid"
       id="grid837"
       spacingx="0.5"
       spacingy="0.5" />
  </sodipodi:namedview>
  <g
     inkscape:groupmode="layer"
     inkscape:label="Image"
     id="g10">
    <g
       transform="matrix(0.65158157,0,0,0.65158157,2.615093,2)"
       id="g4"
       style="fill:#ffffff">
      <path
         style="fill:#ffffff"
         d="M 12.701,5.182 7.497,0 V 6.488 L 5.161,4.162 4.181,5.144 7.433,8.382 4.186,11.548 5.157,12.54 7.5,10.255 v 6.627 L 12.695,11.657 9.41,8.391 Z M 8.885,3.34 10.724,5.17 8.885,6.965 Z m 1.847,8.324 -1.846,1.857 V 9.826 Z"
         id="path2" />
    </g>
    <g
       transform="matrix(0.68119891,0,0,0.68119891,2.3930518,1.5)"
       id="g6" />
    <g
       transform="matrix(0.68119891,0,0,0.68119891,2.3930518,1.5)"
       id="g8" />
    <g
       transform="matrix(0.68119891,0,0,0.68119891,2.3930518,1.5)"
       id="g10-6" />
    <g
       transform="matrix(0.68119891,0,0,0.68119891,2.3930518,1.5)"
       id="g12" />
    <g
       transform="matrix(0.68119891,0,0,0.68119891,2.3930518,1.5)"
       id="g14" />
    <g
       transform="matrix(0.68119891,0,0,0.68119891,2.3930518,1.5)"
       id="g16" />
    <g
       transform="matrix(0.68119891,0,0,0.68119891,2.3930518,1.5)"
       id="g18" />
    <g
       transform="matrix(0.68119891,0,0,0.68119891,2.3930518,1.5)"
       id="g20" />
    <g
       transform="matrix(0.68119891,0,0,0.68119891,2.3930518,1.5)"
       id="g22" />
    <g
       transform="matrix(0.68119891,0,0,0.68119891,2.3930518,1.5)"
       id="g24" />
    <g
       transform="matrix(0.68119891,0,0,0.68119891,2.3930518,1.5)"
       id="g26" />
    <g
       transform="matrix(0.68119891,0,0,0.68119891,2.3930518,1.5)"
       id="g28" />
    <g
       transform="matrix(0.68119891,0,0,0.68119891,2.3930518,1.5)"
       id="g30" />
    <g
       transform="matrix(0.68119891,0,0,0.68119891,2.3930518,1.5)"
       id="g32" />
    <g
       transform="matrix(0.68119891,0,0,0.68119891,2.3930518,1.5)"
       id="g34" />
    <circle
       r="0.5"
       cy="7.5"
       cx="10.5"
       id="path7642"
       style="fill:#fefefe;fill-opacity:1;stroke:none;stroke-width:0.5;stroke-linecap:round;stroke-linejoin:round;stroke-miterlimit:4;stroke-dasharray:none;stroke-opacity:1" />
    <circle
       style="fill:#fefefe;fill-opacity:1;stroke:none;stroke-width:0.5;stroke-linecap:round;stroke-linejoin:round;stroke-miterlimit:4;stroke-dasharray:none;stroke-opacity:1"
       id="circle7644"
       cx="12.5"
       cy="7.5"
       r="0.5" />
    <circle
       r="0.5"
       cy="7.5"
       cx="4.5"
       id="circle7646"
       style="fill:#fefefe;fill-opacity:1;stroke:none;stroke-width:0.5;stroke-linecap:round;stroke-linejoin:round;stroke-miterlimit:4;stroke-dasharray:none;stroke-opacity:1" />
    <circle
       style="fill:#fefefe;fill-opacity:1;stroke:none;stroke-width:0.5;stroke-linecap:round;stroke-linejoin:round;stroke-miterlimit:4;stroke-dasharray:none;stroke-opacity:1"
       id="circle7648"
       cx="2.5"
       cy="7.5"
       r="0.5" />
  </g>
</svg>
